X:1
T:Title
L:1/8
Q:1/4=120
M:2/2
K:C
V:1 treble nm="Church Organ, Staff"
V:1
 G2 c2- c/ z/ B A2 | c2 G4 E2 | G2 c2 G2 c2 | G2 .c6 | G2 G2- G/ z/ A G2 | G2 G2- G/ z/ A G2 | %6
w: By~J.~Mosenthal * * * *||||||
 cB A2 A2 B2- | BA .G6 | G2 d2- d/ z/ d e2 | d2 c4 G2 | G2 d2- d/ z/ d e2 | d2 .c6 | %12
w: ||||||
 G2 c2- c/ z/ B A2 | c2 G4 E2 | G2 A2 A2 B2 | B2 .c6 |] %16
w: ||||

